static/icons/codepen.svg

<svg xmlns="http://www.w3.org/2000/svg" width="24" height="24" viewBox="0 0 24 24">
  <path fill-rule="evenodd" d="M5.92857143,14.4375 L11.3125,18.0267857 L11.3125,14.8214286 L8.33035714,12.8303571 L5.92857143,14.4375 Z M5.375,13.1517857 L7.09821429,12 L5.375,10.8482143 L5.375,13.1517857 Z M12.6875,18.0267857 L18.0714286,14.4375 L15.6696429,12.8303571 L12.6875,14.8214286 L12.6875,18.0267857 Z M12,13.625 L14.4285714,12 L12,10.375 L9.57142857,12 L12,13.625 Z M8.33035714,11.1696429 L11.3125,9.17857143 L11.3125,5.97321429 L5.92857143,9.5625 L8.33035714,11.1696429 Z M16.9017857,12 L18.625,13.1517857 L18.625,10.8482143 L16.9017857,12 Z M15.6696429,11.1696429 L18.0714286,9.5625 L12.6875,5.97321429 L12.6875,9.17857143 L15.6696429,11.1696429 Z M20,9.5625 L20,14.4375 C20,14.6607143 19.8839286,14.8839286 19.6964286,15.0089286 L12.3839286,19.8839286 C12.2678571,19.9553571 12.1339286,20 12,20 C11.8660714,20 11.7321429,19.9553571 11.6160714,19.8839286 L4.30357143,15.0089286 C4.11607143,14.8839286 4,14.6607143 4,14.4375 L4,9.5625 C4,9.33928571 4.11607143,9.11607143 4.30357143,8.99107143 L11.6160714,4.11607143 C11.7321429,4.04464286 11.8660714,4 12,4 C12.1339286,4 12.2678571,4.04464286 12.3839286,4.11607143 L19.6964286,8.99107143 C19.8839286,9.11607143 20,9.33928571 20,9.5625 Z"/>
</svg>

<svg xmlns="http://www.w3.org/2000/svg" width="24" height="24">
    <path fill-rule="evenodd" d="M5.929 14.438l5.383 3.589V14.82L8.33 12.83l-2.401 1.607zm-.554-1.286L7.098 12l-1.723-1.152v2.304zm7.313 4.875l5.383-3.59-2.401-1.607-2.982 1.991v3.206zM12 13.625L14.429 12 12 10.375 9.571 12 12 13.625zM8.33 11.17l2.982-1.991V5.973L5.93 9.563l2.4 1.607zm8.572.83l1.723 1.152v-2.304L16.902 12zm-1.232-.83l2.401-1.607-5.384-3.59V9.18l2.983 1.99zM20 9.563v4.874a.699.699 0 0 1-.304.572l-7.312 4.875A.743.743 0 0 1 12 20a.743.743 0 0 1-.384-.116l-7.312-4.875A.699.699 0 0 1 4 14.437V9.564c0-.224.116-.447.304-.572l7.312-4.875A.743.743 0 0 1 12 4c.134 0 .268.045.384.116l7.312 4.875a.699.699 0 0 1 .304.572z"/>
</svg>
